;FLAVOR:Repetier
;TIME:6538
;MINX:75.102
;MINY:60.41
;MINZ:0.3
;MAXX:124.898
;MAXY:139.586
;MAXZ:30.271
;TARGET_MACHINE.NAME:German RepRap Neo
;POSTPROCESSED
;  [InsertAtLayerChange]
;Generated with Cura_SteamEngine 5.8.1
M104 S200
M109 S200
M82 ;absolute extrusion mode
G21 ;metric values
G90 ;absolute positioning
M82 ;set extruder to absolute mode
M107 ;start with the fan off
G28 X0 Y0 ;move X/Y to min endstops
G28 Z0 ;move Z to min endstops
G92 E0 ;zero the extruded length
G1 F200 E3 ;extrude 3mm of feed stock
G92 E0 ;zero the extruded length again
G1 F9000
;Put printing message on LCD screen
M117 Printing...
G92 E0
G92 E0
G1 F1500 E-6.5
;LAYER_COUNT:44
;layer change
;LAYER:0
M107
;MESH:pyramide1.stl
G0 F3600 X124.27 Y139.066 Z0.3
;TYPE:WALL-INNER
G1 F1500 E0
G1 F1800 X124.27 Y60.93 E4.87278
G1 X75.73 Y60.93 E7.89986
G1 X75.73 Y139.066 E12.77264
G1 X124.27 Y139.066 E15.79973
G0 F3600 X124.77 Y139.566
;TYPE:WALL-OUTER
G1 F1800 X124.77 Y60.43 E20.73487
G1 X75.23 Y60.43 E23.82432
G1 X75.23 Y139.566 E28.75946
G1 X124.77 Y139.566 E31.84891
G0 F3600 X124.77 Y139.316
G0 X123.97 Y138.769
G0 X123.794 Y138.59
;TYPE:SKIN
G1 F1800 X76.202 Y138.59 E34.81688
G1 X76.202 Y61.402 E39.63053
G1 X123.794 Y61.402 E42.5985
G1 X123.794 Y138.59 E47.41216
G0 F3600 X123.544 Y138
G1 F1800 X76.452 Y138 E50.34894
G0 F3600 X76.452 Y137.5
G1 F1800 X123.544 Y137.5 E53.28573
G0 F3600 X123.544 Y137
G1 F1800 X76.452 Y137 E56.22252
G0 F3600 X76.452 Y136.5
G1 F1800 X123.544 Y136.5 E59.1593
G0 F3600 X123.544 Y136
G1 F1800 X76.452 Y136 E62.09609
G0 F3600 X76.452 Y135.5
G1 F1800 X123.544 Y135.5 E65.03288
G0 F3600 X123.544 Y135
G1 F1800 X76.452 Y135 E67.96966
G0 F3600 X76.452 Y134.5
G1 F1800 X123.544 Y134.5 E70.90645
G0 F3600 X123.544 Y134
G1 F1800 X76.452 Y134 E73.84324
G0 F3600 X76.452 Y133.5
G1 F1800 X123.544 Y133.5 E76.78002
G0 F3600 X123.544 Y133
G1 F1800 X76.452 Y133 E79.71681
G0 F3600 X76.452 Y132.5
G1 F1800 X123.544 Y132.5 E82.6536
G0 F3600 X123.544 Y132
G1 F1800 X76.452 Y132 E85.59038
G0 F3600 X76.452 Y131.5
G1 F1800 X123.544 Y131.5 E88.52717
G0 F3600 X123.544 Y131
G1 F1800 X76.452 Y131 E91.46396
G0 F3600 X76.452 Y130.5
G1 F1800 X123.544 Y130.5 E94.40074
G0 F3600 X123.544 Y130
G1 F1800 X76.452 Y130 E97.33753
G0 F3600 X76.452 Y129.5
G1 F1800 X123.544 Y129.5 E100.27432
G0 F3600 X123.544 Y129
G1 F1800 X76.452 Y129 E103.2111
G0 F3600 X76.452 Y128.5
G1 F1800 X123.544 Y128.5 E106.14789
G0 F3600 X123.544 Y128
G1 F1800 X76.452 Y128 E109.08468
G0 F3600 X76.452 Y127.5
G1 F1800 X123.544 Y127.5 E112.02147
G0 F3600 X123.544 Y127
G1 F1800 X76.452 Y127 E114.95825
G0 F3600 X76.452 Y126.5
G1 F1800 X123.544 Y126.5 E117.89504
G0 F3600 X123.544 Y126
G1 F1800 X76.452 Y126 E120.83183
G0 F3600 X76.452 Y125.5
G1 F1800 X123.544 Y125.5 E123.76861
G0 F3600 X123.544 Y125
G1 F1800 X76.452 Y125 E126.7054
G0 F3600 X76.452 Y124.5
G1 F1800 X123.544 Y124.5 E129.64219
G0 F3600 X123.544 Y124
G1 F1800 X76.452 Y124 E132.57897
G0 F3600 X76.452 Y123.5
G1 F1800 X123.544 Y123.5 E135.51576
G0 F3600 X123.544 Y123
G1 F1800 X76.452 Y123 E138.45255
G0 F3600 X76.452 Y122.5
G1 F1800 X123.544 Y122.5 E141.38933
G0 F3600 X123.544 Y122
G1 F1800 X76.452 Y122 E144.32612
G0 F3600 X76.452 Y121.5
G1 F1800 X123.544 Y121.5 E147.26291
G0 F3600 X123.544 Y121
G1 F1800 X76.452 Y121 E150.19969
G0 F3600 X76.452 Y120.5
G1 F1800 X123.544 Y120.5 E153.13648
G0 F3600 X123.544 Y120
G1 F1800 X76.452 Y120 E156.07327
G0 F3600 X76.452 Y119.5
G1 F1800 X123.544 Y119.5 E159.01005
G0 F3600 X123.544 Y119
G1 F1800 X76.452 Y119 E161.94684
G0 F3600 X76.452 Y118.5
G1 F1800 X123.544 Y118.5 E164.88363
G0 F3600 X123.544 Y118
G1 F1800 X76.452 Y118 E167.82041
G0 F3600 X76.452 Y117.5
G1 F1800 X123.544 Y117.5 E170.7572
G0 F3600 X123.544 Y117
G1 F1800 X76.452 Y117 E173.69399
G0 F3600 X76.452 Y116.5
G1 F1800 X123.544 Y116.5 E176.63077
G0 F3600 X123.544 Y116
G1 F1800 X76.452 Y116 E179.56756
G0 F3600 X76.452 Y115.5
G1 F1800 X123.544 Y115.5 E182.50435
G0 F3600 X123.544 Y115
G1 F1800 X76.452 Y115 E185.44113
G0 F3600 X76.452 Y114.5
G1 F1800 X123.544 Y114.5 E188.37792
G0 F3600 X123.544 Y114
G1 F1800 X76.452 Y114 E191.31471
G0 F3600 X76.452 Y113.5
G1 F1800 X123.544 Y113.5 E194.25149
G0 F3600 X123.544 Y113
G1 F1800 X76.452 Y113 E197.18828
G0 F3600 X76.452 Y112.5
G1 F1800 X123.544 Y112.5 E200.12507
G0 F3600 X123.544 Y112
G1 F1800 X76.452 Y112 E203.06186
G0 F3600 X76.452 Y111.5
G1 F1800 X123.544 Y111.5 E205.99864
G0 F3600 X123.544 Y111
G1 F1800 X76.452 Y111 E208.93543
G0 F3600 X76.452 Y110.5
G1 F1800 X123.544 Y110.5 E211.87222
G0 F3600 X123.544 Y110
G1 F1800 X76.452 Y110 E214.809
G0 F3600 X76.452 Y109.5
G1 F1800 X123.544 Y109.5 E217.74579
G0 F3600 X123.544 Y109
G1 F1800 X76.452 Y109 E220.68258
G0 F3600 X76.452 Y108.5
G1 F1800 X123.544 Y108.5 E223.61936
G0 F3600 X123.544 Y108
G1 F1800 X76.452 Y108 E226.55615
G0 F3600 X76.452 Y107.5
G1 F1800 X123.544 Y107.5 E229.49294
G0 F3600 X123.544 Y107
G1 F1800 X76.452 Y107 E232.42972
G0 F3600 X76.452 Y106.5
G1 F1800 X123.544 Y106.5 E235.36651
G0 F3600 X123.544 Y106
G1 F1800 X76.452 Y106 E238.3033
G0 F3600 X76.452 Y105.5
G1 F1800 X123.544 Y105.5 E241.24008
G0 F3600 X123.544 Y105
G1 F1800 X76.452 Y105 E244.17687
G0 F3600 X76.452 Y104.5
G1 F1800 X123.544 Y104.5 E247.11366
G0 F3600 X123.544 Y104
G1 F1800 X76.452 Y104 E250.05044
G0 F3600 X76.452 Y103.5
G1 F1800 X123.544 Y103.5 E252.98723
G0 F3600 X123.544 Y103
G1 F1800 X76.452 Y103 E255.92402
G0 F3600 X76.452 Y102.5
G1 F1800 X123.544 Y102.5 E258.8608
G0 F3600 X123.544 Y102
G1 F1800 X76.452 Y102 E261.79759
G0 F3600 X76.452 Y101.5
G1 F1800 X123.544 Y101.5 E264.73438
G0 F3600 X123.544 Y101
G1 F1800 X76.452 Y101 E267.67116
G0 F3600 X76.452 Y100.5
G1 F1800 X123.544 Y100.5 E270.60795
G0 F3600 X123.544 Y100
G1 F1800 X76.452 Y100 E273.54474
G0 F3600 X76.452 Y99.5
G1 F1800 X123.544 Y99.5 E276.48152
G0 F3600 X123.544 Y99
G1 F1800 X76.452 Y99 E279.41831
G0 F3600 X76.452 Y98.5
G1 F1800 X123.544 Y98.5 E282.3551
G0 F3600 X123.544 Y98
G1 F1800 X76.452 Y98 E285.29188
G0 F3600 X76.452 Y97.5
G1 F1800 X123.544 Y97.5 E288.22867
G0 F3600 X123.544 Y97
G1 F1800 X76.452 Y97 E291.16546
G0 F3600 X76.452 Y96.5
G1 F1800 X123.544 Y96.5 E294.10225
G0 F3600 X123.544 Y96
G1 F1800 X76.452 Y96 E297.03903
G0 F3600 X76.452 Y95.5
G1 F1800 X123.544 Y95.5 E299.97582
G0 F3600 X123.544 Y95
G1 F1800 X76.452 Y95 E302.91261
G0 F3600 X76.452 Y94.5
G1 F1800 X123.544 Y94.5 E305.84939
G0 F3600 X123.544 Y94
G1 F1800 X76.452 Y94 E308.78618
G0 F3600 X76.452 Y93.5
G1 F1800 X123.544 Y93.5 E311.72297
G0 F3600 X123.544 Y93
G1 F1800 X76.452 Y93 E314.65975
G0 F3600 X76.452 Y92.5
G1 F1800 X123.544 Y92.5 E317.59654
G0 F3600 X123.544 Y92
G1 F1800 X76.452 Y92 E320.53333
G0 F3600 X76.452 Y91.5
G1 F1800 X123.544 Y91.5 E323.47011
G0 F3600 X123.544 Y91
G1 F1800 X76.452 Y91 E326.4069
G0 F3600 X76.452 Y90.5
G1 F1800 X123.544 Y90.5 E329.34369
G0 F3600 X123.544 Y90
G1 F1800 X76.452 Y90 E332.28047
G0 F3600 X76.452 Y89.5
G1 F1800 X123.544 Y89.5 E335.21726
G0 F3600 X123.544 Y89
G1 F1800 X76.452 Y89 E338.15405
G0 F3600 X76.452 Y88.5
G1 F1800 X123.544 Y88.5 E341.09083
G0 F3600 X123.544 Y88
G1 F1800 X76.452 Y88 E344.02762
G0 F3600 X76.452 Y87.5
G1 F1800 X123.544 Y87.5 E346.96441
G0 F3600 X123.544 Y87
G1 F1800 X76.452 Y87 E349.90119
G0 F3600 X76.452 Y86.5
G1 F1800 X123.544 Y86.5 E352.83798
G0 F3600 X123.544 Y86
G1 F1800 X76.452 Y86 E355.77477
G0 F3600 X76.452 Y85.5
G1 F1800 X123.544 Y85.5 E358.71155
G0 F3600 X123.544 Y85
G1 F1800 X76.452 Y85 E361.64834
G0 F3600 X76.452 Y84.5
G1 F1800 X123.544 Y84.5 E364.58513
G0 F3600 X123.544 Y84
G1 F1800 X76.452 Y84 E367.52191
G0 F3600 X76.452 Y83.5
G1 F1800 X123.544 Y83.5 E370.4587
G0 F3600 X123.544 Y83
G1 F1800 X76.452 Y83 E373.39549
G0 F3600 X76.452 Y82.5
G1 F1800 X123.544 Y82.5 E376.33227
G0 F3600 X123.544 Y82
G1 F1800 X76.452 Y82 E379.26906
G0 F3600 X76.452 Y81.5
G1 F1800 X123.544 Y81.5 E382.20585
G0 F3600 X123.544 Y81
G1 F1800 X76.452 Y81 E385.14264
G0 F3600 X76.452 Y80.5
G1 F1800 X123.544 Y80.5 E388.07942
G0 F3600 X123.544 Y80
G1 F1800 X76.452 Y80 E391.01621
G0 F3600 X76.452 Y79.5
G1 F1800 X123.544 Y79.5 E393.953
G0 F3600 X123.544 Y79
G1 F1800 X76.452 Y79 E396.88978
G0 F3600 X76.452 Y78.5
G1 F1800 X123.544 Y78.5 E399.82657
G0 F3600 X123.544 Y78
G1 F1800 X76.452 Y78 E402.76336
G0 F3600 X76.452 Y77.5
G1 F1800 X123.544 Y77.5 E405.70014
G0 F3600 X123.544 Y77
G1 F1800 X76.452 Y77 E408.63693
G0 F3600 X76.452 Y76.5
G1 F1800 X123.544 Y76.5 E411.57372
G0 F3600 X123.544 Y76
G1 F1800 X76.452 Y76 E414.5105
G0 F3600 X76.452 Y75.5
G1 F1800 X123.544 Y75.5 E417.44729
G0 F3600 X123.544 Y75
G1 F1800 X76.452 Y75 E420.38408
G0 F3600 X76.452 Y74.5
G1 F1800 X123.544 Y74.5 E423.32086
G0 F3600 X123.544 Y74
G1 F1800 X76.452 Y74 E426.25765
G0 F3600 X76.452 Y73.5
G1 F1800 X123.544 Y73.5 E429.19444
G0 F3600 X123.544 Y73
G1 F1800 X76.452 Y73 E432.13122
G0 F3600 X76.452 Y72.5
G1 F1800 X123.544 Y72.5 E435.06801
G0 F3600 X123.544 Y72
G1 F1800 X76.452 Y72 E438.0048
G0 F3600 X76.452 Y71.5
G1 F1800 X123.544 Y71.5 E440.94158
G0 F3600 X123.544 Y71
G1 F1800 X76.452 Y71 E443.87837
G0 F3600 X76.452 Y70.5
G1 F1800 X123.544 Y70.5 E446.81516
G0 F3600 X123.544 Y70
G1 F1800 X76.452 Y70 E449.75194
G0 F3600 X76.452 Y69.5
G1 F1800 X123.544 Y69.5 E452.68873
G0 F3600 X123.544 Y69
G1 F1800 X76.452 Y69 E455.62552
G0 F3600 X76.452 Y68.5
G1 F1800 X123.544 Y68.5 E458.5623
G0 F3600 X123.544 Y68
G1 F1800 X76.452 Y68 E461.49909
G0 F3600 X76.452 Y67.5
G1 F1800 X123.544 Y67.5 E464.43588
G0 F3600 X123.544 Y67
G1 F1800 X76.452 Y67 E467.37266
G0 F3600 X76.452 Y66.5
G1 F1800 X123.544 Y66.5 E470.30945
G0 F3600 X123.544 Y66
G1 F1800 X76.452 Y66 E473.24624
G0 F3600 X76.452 Y65.5
G1 F1800 X123.544 Y65.5 E476.18303
G0 F3600 X123.544 Y65
G1 F1800 X76.452 Y65 E479.11981
G0 F3600 X76.452 Y64.5
G1 F1800 X123.544 Y64.5 E482.0566
G0 F3600 X123.544 Y64
G1 F1800 X76.452 Y64 E484.99339
G0 F3600 X76.452 Y63.5
G1 F1800 X123.544 Y63.5 E487.93017
G0 F3600 X123.544 Y63
G1 F1800 X76.452 Y63 E490.86696
G0 F3600 X76.452 Y62.5
G1 F1800 X123.544 Y62.5 E493.80375
G0 F3600 X123.544 Y62
G1 F1800 X76.452 Y62 E496.74053
G1 X76.327 Y62
;MESH:pyramide1.stl(1)
G0 F3600 X75.88 Y62
G0 X123.97 Y138.769
G0 X124.29 Y139.086
;TYPE:WALL-INNER
G1 F1800 X124.29 Y60.91 E501.6158
G1 X75.71 Y60.91 E504.64539
G1 X75.71 Y139.086 E509.52066
G1 X124.29 Y139.086 E512.55024
G0 F3600 X124.79 Y139.586
;TYPE:WALL-OUTER
G1 F1800 X124.79 Y60.41 E517.48787
G1 X75.21 Y60.41 E520.57982
G1 X75.21 Y139.586 E525.51745
G1 X124.79 Y139.586 E528.6094
G0 F3600 X124.79 Y139.336
G0 X123.97 Y138.769
G0 X123.814 Y138.61
;TYPE:SKIN
G1 F1800 X76.182 Y138.61 E531.57986
G1 X76.182 Y61.382 E536.39601
G1 X123.814 Y61.382 E539.36647
G1 X123.814 Y138.61 E544.18262
G0 F3600 X123.564 Y138
G1 F1800 X76.432 Y138 E547.1219
G0 F3600 X76.432 Y137.5
G1 F1800 X123.564 Y137.5 E550.06119
G0 F3600 X123.564 Y137
G1 F1800 X76.432 Y137 E553.00047
G0 F3600 X76.432 Y136.5
G1 F1800 X123.564 Y136.5 E555.93975
G0 F3600 X123.564 Y136
G1 F1800 X76.432 Y136 E558.87903
G0 F3600 X76.432 Y135.5
G1 F1800 X123.564 Y135.5 E561.81831
G0 F3600 X123.564 Y135
G1 F1800 X76.432 Y135 E564.75759
G0 F3600 X76.432 Y134.5
G1 F1800 X123.564 Y134.5 E567.69687
G0 F3600 X123.564 Y134
G1 F1800 X76.432 Y134 E570.63615
G0 F3600 X76.432 Y133.5
G1 F1800 X123.564 Y133.5 E573.57544
G0 F3600 X123.564 Y133
G1 F1800 X76.432 Y133 E576.51472
G0 F3600 X76.432 Y132.5
G1 F1800 X123.564 Y132.5 E579.454
G0 F3600 X123.564 Y132
G1 F1800 X76.432 Y132 E582.39328
G0 F3600 X76.432 Y131.5
G1 F1800 X123.564 Y131.5 E585.33256
G0 F3600 X123.564 Y131
G1 F1800 X76.432 Y131 E588.27184
G0 F3600 X76.432 Y130.5
G1 F1800 X123.564 Y130.5 E591.21112
G0 F3600 X123.564 Y130
G1 F1800 X76.432 Y130 E594.1504
G0 F3600 X76.432 Y129.5
G1 F1800 X123.564 Y129.5 E597.08969
G0 F3600 X123.564 Y129
G1 F1800 X76.432 Y129 E600.02897
G0 F3600 X76.432 Y128.5
G1 F1800 X123.564 Y128.5 E602.96825
G0 F3600 X123.564 Y128
G1 F1800 X76.432 Y128 E605.90753
G0 F3600 X76.432 Y127.5
G1 F1800 X123.564 Y127.5 E608.84681
G0 F3600 X123.564 Y127
G1 F1800 X76.432 Y127 E611.78609
G0 F3600 X76.432 Y126.5
G1 F1800 X123.564 Y126.5 E614.72537
G0 F3600 X123.564 Y126
G1 F1800 X76.432 Y126 E617.66466
G0 F3600 X76.432 Y125.5
G1 F1800 X123.564 Y125.5 E620.60394
G0 F3600 X123.564 Y125
G1 F1800 X76.432 Y125 E623.54322
G0 F3600 X76.432 Y124.5
G1 F1800 X123.564 Y124.5 E626.4825
G0 F3600 X123.564 Y124
G1 F1800 X76.432 Y124 E629.42178
G0 F3600 X76.432 Y123.5
G1 F1800 X123.564 Y123.5 E632.36106
G0 F3600 X123.564 Y123
G1 F1800 X76.432 Y123 E635.30034
G0 F3600 X76.432 Y122.5
G1 F1800 X123.564 Y122.5 E638.23962
G0 F3600 X123.564 Y122
G1 F1800 X76.432 Y122 E641.17891
G0 F3600 X76.432 Y121.5
G1 F1800 X123.564 Y121.5 E644.11819
G0 F3600 X123.564 Y121
G1 F1800 X76.432 Y121 E647.05747
G0 F3600 X76.432 Y120.5
G1 F1800 X123.564 Y120.5 E649.99675
G0 F3600 X123.564 Y120
G1 F1800 X76.432 Y120 E652.93603
G0 F3600 X76.432 Y119.5
G1 F1800 X123.564 Y119.5 E655.87531
G0 F3600 X123.564 Y119
G1 F1800 X76.432 Y119 E658.81459
G0 F3600 X76.432 Y118.5
G1 F1800 X123.564 Y118.5 E661.75387
G0 F3600 X123.564 Y118
G1 F1800 X76.432 Y118 E664.69316
G0 F3600 X76.432 Y117.5
G1 F1800 X123.564 Y117.5 E667.63244
G0 F3600 X123.564 Y117
G1 F1800 X76.432 Y117 E670.57172
G0 F3600 X76.432 Y116.5
G1 F1800 X123.564 Y116.5 E673.511
G0 F3600 X123.564 Y116
G1 F1800 X76.432 Y116 E676.45028
G0 F3600 X76.432 Y115.5
G1 F1800 X123.564 Y115.5 E679.38956
G0 F3600 X123.564 Y115
G1 F1800 X76.432 Y115 E682.32884
G0 F3600 X76.432 Y114.5
G1 F1800 X123.564 Y114.5 E685.26812
G0 F3600 X123.564 Y114
G1 F1800 X76.432 Y114 E688.20741
G0 F3600 X76.432 Y113.5
G1 F1800 X123.564 Y113.5 E691.14669
G0 F3600 X123.564 Y113
G1 F1800 X76.432 Y113 E694.08597
G0 F3600 X76.432 Y112.5
G1 F1800 X123.564 Y112.5 E697.02525
G0 F3600 X123.564 Y112
G1 F1800 X76.432 Y112 E699.96453
G0 F3600 X76.432 Y111.5
G1 F1800 X123.564 Y111.5 E702.90381
G0 F3600 X123.564 Y111
G1 F1800 X76.432 Y111 E705.84309
G0 F3600 X76.432 Y110.5
G1 F1800 X123.564 Y110.5 E708.78237
G0 F3600 X123.564 Y110
G1 F1800 X76.432 Y110 E711.72166
G0 F3600 X76.432 Y109.5
G1 F1800 X123.564 Y109.5 E714.66094
G0 F3600 X123.564 Y109
G1 F1800 X76.432 Y109 E717.60022
G0 F3600 X76.432 Y108.5
G1 F1800 X123.564 Y108.5 E720.5395
G0 F3600 X123.564 Y108
G1 F1800 X76.432 Y108 E723.47878
G0 F3600 X76.432 Y107.5
G1 F1800 X123.564 Y107.5 E726.41806
G0 F3600 X123.564 Y107
G1 F1800 X76.432 Y107 E729.35734
G0 F3600 X76.432 Y106.5
G1 F1800 X123.564 Y106.5 E732.29663
G0 F3600 X123.564 Y106
G1 F1800 X76.432 Y106 E735.23591
G0 F3600 X76.432 Y105.5
G1 F1800 X123.564 Y105.5 E738.17519
G0 F3600 X123.564 Y105
G1 F1800 X76.432 Y105 E741.11447
G0 F3600 X76.432 Y104.5
G1 F1800 X123.564 Y104.5 E744.05375
G0 F3600 X123.564 Y104
G1 F1800 X76.432 Y104 E746.99303
G0 F3600 X76.432 Y103.5
G1 F1800 X123.564 Y103.5 E749.93231
G0 F3600 X123.564 Y103
G1 F1800 X76.432 Y103 E752.87159
G0 F3600 X76.432 Y102.5
G1 F1800 X123.564 Y102.5 E755.81088
G0 F3600 X123.564 Y102
G1 F1800 X76.432 Y102 E758.75016
G0 F3600 X76.432 Y101.5
G1 F1800 X123.564 Y101.5 E761.68944
G0 F3600 X123.564 Y101
G1 F1800 X76.432 Y101 E764.62872
G0 F3600 X76.432 Y100.5
G1 F1800 X123.564 Y100.5 E767.568
G0 F3600 X123.564 Y100
G1 F1800 X76.432 Y100 E770.50728
G0 F3600 X76.432 Y99.5
G1 F1800 X123.564 Y99.5 E773.44656
G0 F3600 X123.564 Y99
G1 F1800 X76.432 Y99 E776.38584
G0 F3600 X76.432 Y98.5
G1 F1800 X123.564 Y98.5 E779.32513
G0 F3600 X123.564 Y98
G1 F1800 X76.432 Y98 E782.26441
G0 F3600 X76.432 Y97.5
G1 F1800 X123.564 Y97.5 E785.20369
G0 F3600 X123.564 Y97
G1 F1800 X76.432 Y97 E788.14297
G0 F3600 X76.432 Y96.5
G1 F1800 X123.564 Y96.5 E791.08225
G0 F3600 X123.564 Y96
G1 F1800 X76.432 Y96 E794.02153
G0 F3600 X76.432 Y95.5
G1 F1800 X123.564 Y95.5 E796.96081
G0 F3600 X123.564 Y95
G1 F1800 X76.432 Y95 E799.90009
G0 F3600 X76.432 Y94.5
G1 F1800 X123.564 Y94.5 E802.83938
G0 F3600 X123.564 Y94
G1 F1800 X76.432 Y94 E805.77866
G0 F3600 X76.432 Y93.5
G1 F1800 X123.564 Y93.5 E808.71794
G0 F3600 X123.564 Y93
G1 F1800 X76.432 Y93 E811.65722
G0 F3600 X76.432 Y92.5
G1 F1800 X123.564 Y92.5 E814.5965
G0 F3600 X123.564 Y92
G1 F1800 X76.432 Y92 E817.53578
G0 F3600 X76.432 Y91.5
G1 F1800 X123.564 Y91.5 E820.47506
G0 F3600 X123.564 Y91
