;FLAVOR:Repetier
;TIME:3266
;MINX:75.102
;MINY:60.45
;MINZ:0.3
;MAXX:124.898
;MAXY:139.546
;MAXZ:30.271
;TARGET_MACHINE.NAME:German RepRap Neo
;POSTPROCESSED
;  [InsertAtLayerChange]
;Generated with Cura_SteamEngine 5.8.1
M104 S200
M109 S200
M82 ;absolute extrusion mode
G21 ;metric values
G90 ;absolute positioning
M82 ;set extruder to absolute mode
M107 ;start with the fan off
G28 X0 Y0 ;move X/Y to min endstops
G28 Z0 ;move Z to min endstops
G91 ;relative positioning
G1 Y-10.0000 F9000 ;compensate firmware head move 1cm right after endstop
G92 Y0 ;zero Y
G90 ;absolute positioning
G1 Z15.0 F9000 ;move the platform down 15mm
G92 E0 ;zero the extruded length
G1 F200 E3 ;extrude 3mm of feed stock
G92 E0 ;zero the extruded length again
G1 F9000
;Put printing message on LCD screen
M117 Printing...
G92 E0
G92 E0
G1 F1500 E-6.5
;LAYER_COUNT:44
;layer change
;LAYER:0
M107
;MESH:pyramide1.stl
G0 F3600 X124.25 Y139.046 Z0.3
;TYPE:WALL-INNER
G1 F1500 E0
G1 F1800 X124.25 Y60.95 E4.87028
G1 X75.75 Y60.95 E7.89488
G1 X75.75 Y139.046 E12.76516
G1 X124.25 Y139.046 E15.78975
G0 F3600 X124.75 Y139.546
;TYPE:WALL-OUTER
G1 F1800 X124.75 Y60.45 E20.72239
G1 X75.25 Y60.45 E23.80935
G1 X75.25 Y139.546 E28.742
G1 X124.75 Y139.546 E31.82895
G0 F3600 X124.75 Y139.296
G0 X123.93 Y138.729
G0 X123.774 Y138.57
;TYPE:SKIN
G1 F1800 X76.222 Y138.57 E34.79443
G1 X76.222 Y61.422 E39.60559
G1 X123.774 Y61.422 E42.57106
G1 X123.774 Y138.57 E47.38222
G0 F3600 X123.524 Y138
G1 F1800 X76.472 Y138 E50.31651
G0 F3600 X76.472 Y137.5
G1 F1800 X123.524 Y137.5 E53.25081
G0 F3600 X123.524 Y137
G1 F1800 X76.472 Y137 E56.1851
G0 F3600 X76.472 Y136.5
G1 F1800 X123.524 Y136.5 E59.11939
G0 F3600 X123.524 Y136
G1 F1800 X76.472 Y136 E62.05368
G0 F3600 X76.472 Y135.5
G1 F1800 X123.524 Y135.5 E64.98798
G0 F3600 X123.524 Y135
G1 F1800 X76.472 Y135 E67.92227
G0 F3600 X76.472 Y134.5
G1 F1800 X123.524 Y134.5 E70.85656
G0 F3600 X123.524 Y134
G1 F1800 X76.472 Y134 E73.79085
G0 F3600 X76.472 Y133.5
G1 F1800 X123.524 Y133.5 E76.72514
G0 F3600 X123.524 Y133
G1 F1800 X76.472 Y133 E79.65944
G0 F3600 X76.472 Y132.5
G1 F1800 X123.524 Y132.5 E82.59373
G0 F3600 X123.524 Y132
G1 F1800 X76.472 Y132 E85.52802
G0 F3600 X76.472 Y131.5
G1 F1800 X123.524 Y131.5 E88.46231
G0 F3600 X123.524 Y131
G1 F1800 X76.472 Y131 E91.39661
G0 F3600 X76.472 Y130.5
G1 F1800 X123.524 Y130.5 E94.3309
G0 F3600 X123.524 Y130
G1 F1800 X76.472 Y130 E97.26519
G0 F3600 X76.472 Y129.5
G1 F1800 X123.524 Y129.5 E100.19948
G0 F3600 X123.524 Y129
G1 F1800 X76.472 Y129 E103.13378
G0 F3600 X76.472 Y128.5
G1 F1800 X123.524 Y128.5 E106.06807
G0 F3600 X123.524 Y128
G1 F1800 X76.472 Y128 E109.00236
G0 F3600 X76.472 Y127.5
G1 F1800 X123.524 Y127.5 E111.93665
G0 F3600 X123.524 Y127
G1 F1800 X76.472 Y127 E114.87094
G0 F3600 X76.472 Y126.5
G1 F1800 X123.524 Y126.5 E117.80524
G0 F3600 X123.524 Y126
G1 F1800 X76.472 Y126 E120.73953
G0 F3600 X76.472 Y125.5
G1 F1800 X123.524 Y125.5 E123.67382
G0 F3600 X123.524 Y125
G1 F1800 X76.472 Y125 E126.60811
G0 F3600 X76.472 Y124.5
G1 F1800 X123.524 Y124.5 E129.54241
G0 F3600 X123.524 Y124
G1 F1800 X76.472 Y124 E132.4767
G0 F3600 X76.472 Y123.5
G1 F1800 X123.524 Y123.5 E135.41099
G0 F3600 X123.524 Y123
G1 F1800 X76.472 Y123 E138.34528
G0 F3600 X76.472 Y122.5
G1 F1800 X123.524 Y122.5 E141.27957
G0 F3600 X123.524 Y122
G1 F1800 X76.472 Y122 E144.21387
G0 F3600 X76.472 Y121.5
G1 F1800 X123.524 Y121.5 E147.14816
G0 F3600 X123.524 Y121
G1 F1800 X76.472 Y121 E150.08245
G0 F3600 X76.472 Y120.5
G1 F1800 X123.524 Y120.5 E153.01674
G0 F3600 X123.524 Y120
G1 F1800 X76.472 Y120 E155.95104
G0 F3600 X76.472 Y119.5
G1 F1800 X123.524 Y119.5 E158.88533
G0 F3600 X123.524 Y119
G1 F1800 X76.472 Y119 E161.81962
G0 F3600 X76.472 Y118.5
G1 F1800 X123.524 Y118.5 E164.75391
G0 F3600 X123.524 Y118
G1 F1800 X76.472 Y118 E167.6882
G0 F3600 X76.472 Y117.5
G1 F1800 X123.524 Y117.5 E170.6225
G0 F3600 X123.524 Y117
G1 F1800 X76.472 Y117 E173.55679
G0 F3600 X76.472 Y116.5
G1 F1800 X123.524 Y116.5 E176.49108
G0 F3600 X123.524 Y116
G1 F1800 X76.472 Y116 E179.42537
G0 F3600 X76.472 Y115.5
G1 F1800 X123.524 Y115.5 E182.35967
G0 F3600 X123.524 Y115
G1 F1800 X76.472 Y115 E185.29396
G0 F3600 X76.472 Y114.5
G1 F1800 X123.524 Y114.5 E188.22825
G0 F3600 X123.524 Y114
G1 F1800 X76.472 Y114 E191.16254
G0 F3600 X76.472 Y113.5
G1 F1800 X123.524 Y113.5 E194.09684
G0 F3600 X123.524 Y113
G1 F1800 X76.472 Y113 E197.03113
G0 F3600 X76.472 Y112.5
G1 F1800 X123.524 Y112.5 E199.96542
G0 F3600 X123.524 Y112
G1 F1800 X76.472 Y112 E202.89971
G0 F3600 X76.472 Y111.5
G1 F1800 X123.524 Y111.5 E205.834
G0 F3600 X123.524 Y111
G1 F1800 X76.472 Y111 E208.7683
G0 F3600 X76.472 Y110.5
G1 F1800 X123.524 Y110.5 E211.70259
G0 F3600 X123.524 Y110
G1 F1800 X76.472 Y110 E214.63688
G0 F3600 X76.472 Y109.5
G1 F1800 X123.524 Y109.5 E217.57117
G0 F3600 X123.524 Y109
G1 F1800 X76.472 Y109 E220.50547
G0 F3600 X76.472 Y108.5
G1 F1800 X123.524 Y108.5 E223.43976
G0 F3600 X123.524 Y108
G1 F1800 X76.472 Y108 E226.37405
G0 F3600 X76.472 Y107.5
G1 F1800 X123.524 Y107.5 E229.30834
G0 F3600 X123.524 Y107
G1 F1800 X76.472 Y107 E232.24263
G0 F3600 X76.472 Y106.5
G1 F1800 X123.524 Y106.5 E235.17693
G0 F3600 X123.524 Y106
G1 F1800 X76.472 Y106 E238.11122
G0 F3600 X76.472 Y105.5
G1 F1800 X123.524 Y105.5 E241.04551
G0 F3600 X123.524 Y105
G1 F1800 X76.472 Y105 E243.9798
G0 F3600 X76.472 Y104.5
G1 F1800 X123.524 Y104.5 E246.9141
G0 F3600 X123.524 Y104
G1 F1800 X76.472 Y104 E249.84839
G0 F3600 X76.472 Y103.5
G1 F1800 X123.524 Y103.5 E252.78268
G0 F3600 X123.524 Y103
G1 F1800 X76.472 Y103 E255.71697
G0 F3600 X76.472 Y102.5
G1 F1800 X123.524 Y102.5 E258.65127
G0 F3600 X123.524 Y102
G1 F1800 X76.472 Y102 E261.58556
G0 F3600 X76.472 Y101.5
G1 F1800 X123.524 Y101.5 E264.51985
G0 F3600 X123.524 Y101
G1 F1800 X76.472 Y101 E267.45414
G0 F3600 X76.472 Y100.5
G1 F1800 X123.524 Y100.5 E270.38843
G0 F3600 X123.524 Y100
G1 F1800 X76.472 Y100 E273.32273
G0 F3600 X76.472 Y99.5
G1 F1800 X123.524 Y99.5 E276.25702
G0 F3600 X123.524 Y99
G1 F1800 X76.472 Y99 E279.19131
G0 F3600 X76.472 Y98.5
G1 F1800 X123.524 Y98.5 E282.1256
G0 F3600 X123.524 Y98
G1 F1800 X76.472 Y98 E285.0599
G0 F3600 X76.472 Y97.5
G1 F1800 X123.524 Y97.5 E287.99419
G0 F3600 X123.524 Y97
G1 F1800 X76.472 Y97 E290.92848
G0 F3600 X76.472 Y96.5
G1 F1800 X123.524 Y96.5 E293.86277
G0 F3600 X123.524 Y96
G1 F1800 X76.472 Y96 E296.79706
G0 F3600 X76.472 Y95.5
G1 F1800 X123.524 Y95.5 E299.73136
G0 F3600 X123.524 Y95
G1 F1800 X76.472 Y95 E302.66565
G0 F3600 X76.472 Y94.5
G1 F1800 X123.524 Y94.5 E305.59994
G0 F3600 X123.524 Y94
G1 F1800 X76.472 Y94 E308.53423
G0 F3600 X76.472 Y93.5
G1 F1800 X123.524 Y93.5 E311.46853
G0 F3600 X123.524 Y93
G1 F1800 X76.472 Y93 E314.40282
G0 F3600 X76.472 Y92.5
G1 F1800 X123.524 Y92.5 E317.33711
G0 F3600 X123.524 Y92
G1 F1800 X76.472 Y92 E320.2714
G0 F3600 X76.472 Y91.5
G1 F1800 X123.524 Y91.5 E323.20569
G0 F3600 X123.524 Y91
G1 F1800 X76.472 Y91 E326.13999
G0 F3600 X76.472 Y90.5
G1 F1800 X123.524 Y90.5 E329.07428
G0 F3600 X123.524 Y90
G1 F1800 X76.472 Y90 E332.00857
G0 F3600 X76.472 Y89.5
G1 F1800 X123.524 Y89.5 E334.94286
G0 F3600 X123.524 Y89
G1 F1800 X76.472 Y89 E337.87716
G0 F3600 X76.472 Y88.5
G1 F1800 X123.524 Y88.5 E340.81145
G0 F3600 X123.524 Y88
G1 F1800 X76.472 Y88 E343.74574
G0 F3600 X76.472 Y87.5
G1 F1800 X123.524 Y87.5 E346.68003
G0 F3600 X123.524 Y87
G1 F1800 X76.472 Y87 E349.61433
G0 F3600 X76.472 Y86.5
G1 F1800 X123.524 Y86.5 E352.54862
G0 F3600 X123.524 Y86
G1 F1800 X76.472 Y86 E355.48291
G0 F3600 X76.472 Y85.5
G1 F1800 X123.524 Y85.5 E358.4172
G0 F3600 X123.524 Y85
G1 F1800 X76.472 Y85 E361.35149
G0 F3600 X76.472 Y84.5
G1 F1800 X123.524 Y84.5 E364.28579
G0 F3600 X123.524 Y84
G1 F1800 X76.472 Y84 E367.22008
G0 F3600 X76.472 Y83.5
G1 F1800 X123.524 Y83.5 E370.15437
G0 F3600 X123.524 Y83
G1 F1800 X76.472 Y83 E373.08866
G0 F3600 X76.472 Y82.5
G1 F1800 X123.524 Y82.5 E376.02296
G0 F3600 X123.524 Y82
G1 F1800 X76.472 Y82 E378.95725
G0 F3600 X76.472 Y81.5
G1 F1800 X123.524 Y81.5 E381.89154
G0 F3600 X123.524 Y81
G1 F1800 X76.472 Y81 E384.82583
G0 F3600 X76.472 Y80.5
G1 F1800 X123.524 Y80.5 E387.76012
G0 F3600 X123.524 Y80
G1 F1800 X76.472 Y80 E390.69442
G0 F3600 X76.472 Y79.5
G1 F1800 X123.524 Y79.5 E393.62871
G0 F3600 X123.524 Y79
G1 F1800 X76.472 Y79 E396.563
G0 F3600 X76.472 Y78.5
G1 F1800 X123.524 Y78.5 E399.49729
G0 F3600 X123.524 Y78
G1 F1800 X76.472 Y78 E402.43159
G0 F3600 X76.472 Y77.5
G1 F1800 X123.524 Y77.5 E405.36588
G0 F3600 X123.524 Y77
G1 F1800 X76.472 Y77 E408.30017
G0 F3600 X76.472 Y76.5
G1 F1800 X123.524 Y76.5 E411.23446
G0 F3600 X123.524 Y76
G1 F1800 X76.472 Y76 E414.16876
G0 F3600 X76.472 Y75.5
G1 F1800 X123.524 Y75.5 E417.10305
G0 F3600 X123.524 Y75
G1 F1800 X76.472 Y75 E420.03734
G0 F3600 X76.472 Y74.5
G1 F1800 X123.524 Y74.5 E422.97163
G0 F3600 X123.524 Y74
G1 F1800 X76.472 Y74 E425.90592
G0 F3600 X76.472 Y73.5
G1 F1800 X123.524 Y73.5 E428.84022
G0 F3600 X123.524 Y73
G1 F1800 X76.472 Y73 E431.77451
G0 F3600 X76.472 Y72.5
G1 F1800 X123.524 Y72.5 E434.7088
G0 F3600 X123.524 Y72
G1 F1800 X76.472 Y72 E437.64309
G0 F3600 X76.472 Y71.5
G1 F1800 X123.524 Y71.5 E440.57739
G0 F3600 X123.524 Y71
G1 F1800 X76.472 Y71 E443.51168
G0 F3600 X76.472 Y70.5
G1 F1800 X123.524 Y70.5 E446.44597
G0 F3600 X123.524 Y70
G1 F1800 X76.472 Y70 E449.38026
G0 F3600 X76.472 Y69.5
G1 F1800 X123.524 Y69.5 E452.31455
G0 F3600 X123.524 Y69
G1 F1800 X76.472 Y69 E455.24885
G0 F3600 X76.472 Y68.5
G1 F1800 X123.524 Y68.5 E458.18314
G0 F3600 X123.524 Y68
G1 F1800 X76.472 Y68 E461.11743
G0 F3600 X76.472 Y67.5
G1 F1800 X123.524 Y67.5 E464.05172
G0 F3600 X123.524 Y67
G1 F1800 X76.472 Y67 E466.98602
G0 F3600 X76.472 Y66.5
G1 F1800 X123.524 Y66.5 E469.92031
G0 F3600 X123.524 Y66
G1 F1800 X76.472 Y66 E472.8546
G0 F3600 X76.472 Y65.5
G1 F1800 X123.524 Y65.5 E475.78889
G0 F3600 X123.524 Y65
G1 F1800 X76.472 Y65 E478.72318
G0 F3600 X76.472 Y64.5
G1 F1800 X123.524 Y64.5 E481.65748
G0 F3600 X123.524 Y64
G1 F1800 X76.472 Y64 E484.59177
G0 F3600 X76.472 Y63.5
G1 F1800 X123.524 Y63.5 E487.52606
G0 F3600 X123.524 Y63
G1 F1800 X76.472 Y63 E490.46035
G0 F3600 X76.472 Y62.5
G1 F1800 X123.524 Y62.5 E493.39465
G0 F3600 X123.524 Y62
G1 F1800 X76.472 Y62 E496.32894
G1 X76.347 Y62
G0 F3600 X76.5 Y62
;MESH:NONMESH
G0 F600 X76.5 Y62 Z0.997
G0 F3600 X123.9 Y138.382
G0 X124.25 Y138.382
;TIME_ELAPSED:275.001722
;layer change
;LAYER:1
M106 S255
;TYPE:WALL-INNER
;MESH:pyramide1.stl
G1 F2700 X124.25 Y61.614 E507.45181
G1 X75.75 Y61.614 E514.47895
G1 X75.75 Y138.382 E525.60183
G1 X124.25 Y138.382 E532.62897
G0 F5400 X124.75 Y138.882
;TYPE:WALL-OUTER
G1 F1800 X124.75 Y61.114 E543.89673
G1 X75.25 Y61.114 E551.06876
G1 X75.25 Y138.882 E562.33652
G1 X124.75 Y138.882 E569.50855
G0 F5400 X124.75 Y138.632
G0 X123.93 Y138.065
G0 X123.774 Y137.906
;TYPE:SKIN
G1 F1800 X76.222 Y137.906 E576.39833
G1 X76.222 Y62.086 E587.38385
G1 X123.774 Y62.086 E594.27364
G1 X123.774 Y137.906 E605.25916
G0 F5400 X123.524 Y137.5
G1 F1800 X76.472 Y137.5 E612.07649
G0 F5400 X76.472 Y137
G1 F1800 X123.524 Y137 E618.89383
G0 F5400 X123.524 Y136.5
G1 F1800 X76.472 Y136.5 E625.71117
G0 F5400 X76.472 Y136
G1 F1800 X123.524 Y136 E632.52851
G0 F5400 X123.524 Y135.5
G1 F1800 X76.472 Y135.5 E639.34585
G0 F5400 X76.472 Y135
G1 F1800 X123.524 Y135 E646.16319
G0 F5400 X123.524 Y134.5
G1 F1800 X76.472 Y134.5 E652.98053
G0 F5400 X76.472 Y134
G1 F1800 X123.524 Y134 E659.79787
G0 F5400 X123.524 Y133.5
G1 F1800 X76.472 Y133.5 E666.61521
G0 F5400 X76.472 Y133
G1 F1800 X123.524 Y133 E673.43255
G0 F5400 X123.524 Y132.5
G1 F1800 X76.472 Y132.5 E680.24988
G0 F5400 X76.472 Y132
G1 F1800 X123.524 Y132 E687.06722
G0 F5400 X123.524 Y131.5
G1 F1800 X76.472 Y131.5 E693.88456
G0 F5400 X76.472 Y131
G1 F1800 X123.524 Y131 E700.7019
G0 F5400 X123.524 Y130.5
G1 F1800 X76.472 Y130.5 E707.51924
G0 F5400 X76.472 Y130
G1 F1800 X123.524 Y130 E714.33658
G0 F5400 X123.524 Y129.5
G1 F1800 X76.472 Y129.5 E721.15392
G0 F5400 X76.472 Y129
G1 F1800 X123.524 Y129 E727.97126
G0 F5400 X123.524 Y128.5
G1 F1800 X76.472 Y128.5 E734.7886
G0 F5400 X76.472 Y128
G1 F1800 X123.524 Y128 E741.60594
G0 F5400 X123.524 Y127.5
G1 F1800 X76.472 Y127.5 E748.42327
G0 F5400 X76.472 Y127
G1 F1800 X123.524 Y127 E755.24061
G0 F5400 X123.524 Y126.5
G1 F1800 X76.472 Y126.5 E762.05795
G0 F5400 X76.472 Y126
G1 F1800 X123.524 Y126 E768.87529
G0 F5400 X123.524 Y125.5
G1 F1800 X76.472 Y125.5 E775.69263
G0 F5400 X76.472 Y125
G1 F1800 X123.524 Y125 E782.50997
G0 F5400 X123.524 Y124.5
G1 F1800 X76.472 Y124.5 E789.32731
G0 F5400 X76.472 Y124
G1 F1800 X123.524 Y124 E796.14465
G0 F5400 X123.524 Y123.5
G1 F1800 X76.472 Y123.5 E802.96199
G0 F5400 X76.472 Y123
G1 F1800 X123.524 Y123 E809.77933
G0 F5400 X123.524 Y122.5
G1 F1800 X76.472 Y122.5 E816.59667
G0 F5400 X76.472 Y122
G1 F1800 X123.524 Y122 E823.414
G0 F5400 X123.524 Y121.5
G1 F1800 X76.472 Y121.5 E830.23134
G0 F5400 X76.472 Y121
G1 F1800 X123.524 Y121 E837.04868
G0 F5400 X123.524 Y120.5
G1 F1800 X76.472 Y120.5 E843.86602
G0 F5400 X76.472 Y120
G1 F1800 X123.524 Y120 E850.68336
G0 F5400 X123.524 Y119.5
G1 F1800 X76.472 Y119.5 E857.5007
G0 F5400 X76.472 Y119
G1 F1800 X123.524 Y119 E864.31804
G0 F5400 X123.524 Y118.5
G1 F1800 X76.472 Y118.5 E871.13538
G0 F5400 X76.472 Y118
G1 F1800 X123.524 Y118 E877.95272
G0 F5400 X123.524 Y117.5
G1 F1800 X76.472 Y117.5 E884.77006
G0 F5400 X76.472 Y117
G1 F1800 X123.524 Y117 E891.58739
G0 F5400 X123.524 Y116.5
G1 F1800 X76.472 Y116.5 E898.40473
G0 F5400 X76.472 Y116
G1 F1800 X123.524 Y116 E905.22207
G0 F5400 X123.524 Y115.5
G1 F1800 X76.472 Y115.5 E912.03941
G0 F5400 X76.472 Y115
G1 F1800 X123.524 Y115 E918.85675
G0 F5400 X123.524 Y114.5
G1 F1800 X76.472 Y114.5 E925.67409
G0 F5400 X76.472 Y114
G1 F1800 X123.524 Y114 E932.49143
G0 F5400 X123.524 Y113.5
G1 F1800 X76.472 Y113.5 E939.30877
G0 F5400 X76.472 Y113
G1 F1800 X123.524 Y113 E946.12611
G0 F5400 X123.524 Y112.5
G1 F1800 X76.472 Y112.5 E952.94345
G0 F5400 X76.472 Y112
G1 F1800 X123.524 Y112 E959.76078
G0 F5400 X123.524 Y111.5
G1 F1800 X76.472 Y111.5 E966.57812
G0 F5400 X76.472 Y111
G1 F1800 X123.524 Y111 E973.39546
G0 F5400 X123.524 Y110.5
G1 F1800 X76.472 Y110.5 E980.2128
G0 F5400 X76.472 Y110
G1 F1800 X123.524 Y110 E987.03014
G0 F5400 X123.524 Y109.5
G1 F1800 X76.472 Y109.5 E993.84748
G0 F5400 X76.472 Y109
G1 F1800 X123.524 Y109 E1000.66482
G0 F5400 X123.524 Y108.5
G1 F1800 X76.472 Y108.5 E1007.48216
G0 F5400 X76.472 Y108
G1 F1800 X123.524 Y108 E1014.2995
G0 F5400 X123.524 Y107.5
G1 F1800 X76.472 Y107.5 E1021.11684
G0 F5400 X76.472 Y107
G1 F1800 X123.524 Y107 E1027.93417
G0 F5400 X123.524 Y106.5
G1 F1800 X76.472 Y106.5 E1034.75151
G0 F5400 X76.472 Y106
G1 F1800 X123.524 Y106 E1041.56885
G0 F5400 X123.524 Y105.5
G1 F1800 X76.472 Y105.5 E1048.38619
G0 F5400 X76.472 Y105
G1 F1800 X123.524 Y105 E1055.20353
G0 F5400 X123.524 Y104.5
G1 F1800 X76.472 Y104.5 E1062.02087
G0 F5400 X76.472 Y104
G1 F1800 X123.524 Y104 E1068.83821
G0 F5400 X123.524 Y103.5
G1 F1800 X76.472 Y103.5 E1075.65555
G0 F5400 X76.472 Y103
G1 F1800 X123.524 Y103 E1082.47289
G0 F5400 X123.524 Y102.5
G1 F1800 X76.472 Y102.5 E1089.29023
G0 F5400 X76.472 Y102
G1 F1800 X123.524 Y102 E1096.10757
G0 F5400 X123.524 Y101.5
G1 F1800 X76.472 Y101.5 E1102.9249
G0 F5400 X76.472 Y101
G1 F1800 X123.524 Y101 E1109.74224
G0 F5400 X123.524 Y100.5
G1 F1800 X76.472 Y100.5 E1116.55958
G0 F5400 X76.472 Y100
G1 F1800 X123.524 Y100 E1123.37692
G0 F5400 X123.524 Y99.5
G1 F1800 X76.472 Y99.5 E1130.19426
G0 F5400 X76.472 Y99
G1 F1800 X123.524 Y99 E1137.0116
G0 F5400 X123.524 Y98.5
G1 F1800 X76.472 Y98.5 E1143.82894
G0 F5400 X76.472 Y98
G1 F1800 X123.524 Y98 E1150.64628
G0 F5400 X123.524 Y97.5
G1 F1800 X76.472 Y97.5 E1157.46362
G0 F5400 X76.472 Y97
G1 F1800 X123.524 Y97 E1164.28096
G0 F5400 X123.524 Y96.5
G1 F1800 X76.472 Y96.5 E1171.09829
G0 F5400 X76.472 Y96
G1 F1800 X123.524 Y96 E1177.91563
G0 F5400 X123.524 Y95.5
G1 F1800 X76.472 Y95.5 E1184.73297
G0 F5400 X76.472 Y95
G1 F1800 X123.524 Y95 E1191.55031
G0 F5400 X123.524 Y94.5
G1 F1800 X76.472 Y94.5 E1198.36765
G0 F5400 X76.472 Y94
G1 F1800 X123.524 Y94 E1205.18499
G0 F5400 X123.524 Y93.5
G1 F1800 X76.472 Y93.5 E1212.00233
