; generated by Slic3r 1.3.0 on 2024-10-26 at 08:27:59

; external perimeters extrusion width = 0.55mm (0.77mm^3/s)
; perimeters extrusion width = 0.52mm (1.46mm^3/s)
; infill extrusion width = 0.52mm (16.71mm^3/s)
; solid infill extrusion width = 0.52mm (4.18mm^3/s)
; top infill extrusion width = 0.52mm (3.13mm^3/s)

M107
M104 S205 ; set temperature
G28 ; home all axes
G1 Z5 F5000 ; lift nozzle

; Filament gcode

M109 S205 ; set temperature and wait for it to be reached
G21 ; set units to millimeters
G90 ; use absolute coordinates
M82 ; use absolute distances for extrusion
G92 E0
; Layer change
G1 Z0.697 F420.000
G1 E-2.00000 F2400.00000
G92 E0
G1 X75.697 Y61.162 F420.000
G1 E2.00000 F2400.00000
G1 F420
G1 X124.303 Y61.162 E7.96428
G1 X124.303 Y138.838 E17.49573
G1 X75.697 Y138.838 E23.46001
G1 X75.697 Y61.237 E32.98226
G1 E30.98226 F2400.00000
G92 E0
G1 X123.939 Y61.989 F420.000
G1 E2.00000 F2400.00000
G1 F420
G1 X76.061 Y61.989 E7.87484
G1 X76.061 Y62.458 E7.93242
G1 X123.939 Y62.458 E13.80726
G1 X123.939 Y62.927 E13.86485
G1 X76.061 Y62.927 E19.73969
G1 X76.061 Y63.396 E19.79727
G1 X123.939 Y63.396 E25.67211
G1 X123.939 Y63.866 E25.72969
G1 X76.061 Y63.866 E31.60453
G1 X76.061 Y64.335 E31.66212
G1 X123.939 Y64.335 E37.53696
G1 X123.939 Y64.804 E37.59454
G1 X76.061 Y64.804 E43.46938
G1 X76.061 Y65.274 E43.52696
G1 X123.939 Y65.274 E49.40180
G1 X123.939 Y65.743 E49.45938
G1 X76.061 Y65.743 E55.33422
G1 X76.061 Y66.212 E55.39181
G1 X123.939 Y66.212 E61.26665
G1 X123.939 Y66.681 E61.32423
G1 X76.061 Y66.681 E67.19907
G1 X76.061 Y67.151 E67.25665
G1 X123.939 Y67.151 E73.13149
G1 X123.939 Y67.620 E73.18908
G1 X76.061 Y67.620 E79.06392
G1 X76.061 Y68.089 E79.12150
G1 X123.939 Y68.089 E84.99634
G1 X123.939 Y68.558 E85.05392
G1 X76.061 Y68.558 E90.92876
G1 X76.061 Y69.028 E90.98635
G1 X123.939 Y69.028 E96.86119
G1 X123.939 Y69.497 E96.91877
G1 X76.061 Y69.497 E102.79361
G1 X76.061 Y69.966 E102.85119
G1 X123.939 Y69.966 E108.72603
G1 X123.939 Y70.436 E108.78362
G1 X76.061 Y70.436 E114.65846
G1 X76.061 Y70.905 E114.71604
G1 X123.939 Y70.905 E120.59088
G1 X123.939 Y71.374 E120.64846
G1 X76.061 Y71.374 E126.52330
G1 X76.061 Y71.843 E126.58089
G1 X123.939 Y71.843 E132.45573
G1 X123.939 Y72.313 E132.51331
G1 X76.061 Y72.313 E138.38815
G1 X76.061 Y72.782 E138.44573
G1 X123.939 Y72.782 E144.32057
G1 X123.939 Y73.251 E144.37815
G1 X76.061 Y73.251 E150.25299
G1 X76.061 Y73.720 E150.31058
G1 X123.939 Y73.720 E156.18542
G1 X123.939 Y74.190 E156.24300
G1 X76.061 Y74.190 E162.11784
G1 X76.061 Y74.659 E162.17542
G1 X123.939 Y74.659 E168.05026
G1 X123.939 Y75.128 E168.10785
G1 X76.061 Y75.128 E173.98269
G1 X76.061 Y75.598 E174.04027
G1 X123.939 Y75.598 E179.91511
G1 X123.939 Y76.067 E179.97269
G1 X76.061 Y76.067 E185.84753
G1 X76.061 Y76.536 E185.90512
G1 X123.939 Y76.536 E191.77996
G1 X123.939 Y77.005 E191.83754
G1 X76.061 Y77.005 E197.71238
G1 X76.061 Y77.475 E197.76996
G1 X123.939 Y77.475 E203.64480
G1 X123.939 Y77.944 E203.70239
G1 X76.061 Y77.944 E209.57723
G1 X76.061 Y78.413 E209.63481
G1 X123.939 Y78.413 E215.50965
G1 X123.939 Y78.883 E215.56723
G1 X76.061 Y78.883 E221.44207
G1 X76.061 Y79.352 E221.49966
G1 X123.939 Y79.352 E227.37450
G1 X123.939 Y79.821 E227.43208
G1 X76.061 Y79.821 E233.30692
G1 X76.061 Y80.290 E233.36450
G1 X123.939 Y80.290 E239.23934
G1 X123.939 Y80.760 E239.29692
G1 X76.061 Y80.760 E245.17176
G1 X76.061 Y81.229 E245.22935
G1 X123.939 Y81.229 E251.10419
G1 X123.939 Y81.698 E251.16177
G1 X76.061 Y81.698 E257.03661
G1 X76.061 Y82.167 E257.09419
G1 X123.939 Y82.167 E262.96903
G1 X123.939 Y82.637 E263.02662
G1 X76.061 Y82.637 E268.90146
G1 X76.061 Y83.106 E268.95904
G1 X123.939 Y83.106 E274.83388
G1 X123.939 Y83.575 E274.89146
G1 X76.061 Y83.575 E280.76630
G1 X76.061 Y84.045 E280.82389
G1 X123.939 Y84.045 E286.69873
G1 X123.939 Y84.514 E286.75631
G1 X76.061 Y84.514 E292.63115
G1 X76.061 Y84.983 E292.68873
G1 X123.939 Y84.983 E298.56357
G1 X123.939 Y85.452 E298.62116
G1 X76.061 Y85.452 E304.49600
G1 X76.061 Y85.922 E304.55358
G1 X123.939 Y85.922 E310.42842
G1 X123.939 Y86.391 E310.48600
G1 X76.061 Y86.391 E316.36084
G1 X76.061 Y86.860 E316.41843
G1 X123.939 Y86.860 E322.29327
G1 X123.939 Y87.330 E322.35085
G1 X76.061 Y87.330 E328.22569
G1 X76.061 Y87.799 E328.28327
G1 X123.939 Y87.799 E334.15811
G1 X123.939 Y88.268 E334.21569
G1 X76.061 Y88.268 E340.09053
G1 X76.061 Y88.737 E340.14812
G1 X123.939 Y88.737 E346.02296
G1 X123.939 Y89.207 E346.08054
G1 X76.061 Y89.207 E351.95538
G1 X76.061 Y89.676 E352.01296
G1 X123.939 Y89.676 E357.88780
G1 X123.939 Y90.145 E357.94539
G1 X76.061 Y90.145 E363.82023
G1 X76.061 Y90.614 E363.87781
G1 X123.939 Y90.614 E369.75265
G1 X123.939 Y91.084 E369.81023
G1 X76.061 Y91.084 E375.68507
G1 X76.061 Y91.553 E375.74266
G1 X123.939 Y91.553 E381.61750
G1 X123.939 Y92.022 E381.67508
G1 X76.061 Y92.022 E387.54992
G1 X76.061 Y92.492 E387.60750
G1 X123.939 Y92.492 E393.48234
G1 X123.939 Y92.961 E393.53993
G1 X76.061 Y92.961 E399.41477
G1 X76.061 Y93.430 E399.47235
G1 X123.939 Y93.430 E405.34719
G1 X123.939 Y93.899 E405.40477
G1 X76.061 Y93.899 E411.27961
G1 X76.061 Y94.369 E411.33720
G1 X123.939 Y94.369 E417.21203
G1 X123.939 Y94.838 E417.26962
G1 X76.061 Y94.838 E423.14446
G1 X76.061 Y95.307 E423.20204
G1 X123.939 Y95.307 E429.07688
G1 X123.939 Y95.777 E429.13446
G1 X76.061 Y95.777 E435.00930
G1 X76.061 Y96.246 E435.06689
G1 X123.939 Y96.246 E440.94173
G1 X123.939 Y96.715 E440.99931
G1 X76.061 Y96.715 E446.87415
G1 X76.061 Y97.184 E446.93173
G1 X123.939 Y97.184 E452.80657
G1 X123.939 Y97.654 E452.86416
G1 X76.061 Y97.654 E458.73900
G1 X76.061 Y98.123 E458.79658
G1 X123.939 Y98.123 E464.67142
G1 X123.939 Y98.592 E464.72900
G1 X76.061 Y98.592 E470.60384
G1 X76.061 Y99.061 E470.66143
G1 X123.939 Y99.061 E476.53627
G1 X123.939 Y99.531 E476.59385
G1 X76.061 Y99.531 E482.46869
G1 X76.061 Y100.000 E482.52627
G1 X123.939 Y100.000 E488.40111
G1 X123.939 Y100.469 E488.45870
G1 X76.061 Y100.469 E494.33354
G1 X76.061 Y100.939 E494.39112
G1 X123.939 Y100.939 E500.26596
G1 X123.939 Y101.408 E500.32354
G1 X76.061 Y101.408 E506.19838
G1 X76.061 Y101.877 E506.25597
G1 X123.939 Y101.877 E512.13080
G1 X123.939 Y102.346 E512.18839
G1 X76.061 Y102.346 E518.06323
G1 X76.061 Y102.816 E518.12081
G1 X123.939 Y102.816 E523.99565
G1 X123.939 Y103.285 E524.05323
G1 X76.061 Y103.285 E529.92807
G1 X76.061 Y103.754 E529.98566
G1 X123.939 Y103.754 E535.86050
G1 X123.939 Y104.223 E535.91808
G1 X76.061 Y104.223 E541.79292
G1 X76.061 Y104.693 E541.85050
G1 X123.939 Y104.693 E547.72534
G1 X123.939 Y105.162 E547.78293
G1 X76.061 Y105.162 E553.65777
G1 X76.061 Y105.631 E553.71535
G1 X123.939 Y105.631 E559.59019
G1 X123.939 Y106.101 E559.64777
G1 X76.061 Y106.101 E565.52261
G1 X76.061 Y106.570 E565.58020
G1 X123.939 Y106.570 E571.45504
G1 X123.939 Y107.039 E571.51262
G1 X76.061 Y107.039 E577.38746
G1 X76.061 Y107.508 E577.44504
G1 X123.939 Y107.508 E583.31988
G1 X123.939 Y107.978 E583.37747
G1 X76.061 Y107.978 E589.25231
G1 X76.061 Y108.447 E589.30989
G1 X123.939 Y108.447 E595.18473
G1 X123.939 Y108.916 E595.24231
G1 X76.061 Y108.916 E601.11715
G1 X76.061 Y109.386 E601.17474
G1 X123.939 Y109.386 E607.04957
G1 X123.939 Y109.855 E607.10716
G1 X76.061 Y109.855 E612.98200
G1 X76.061 Y110.324 E613.03958
G1 X123.939 Y110.324 E618.91442
G1 X123.939 Y110.793 E618.97200
G1 X76.061 Y110.793 E624.84684
G1 X76.061 Y111.263 E624.90443
G1 X123.939 Y111.263 E630.77927
G1 X123.939 Y111.732 E630.83685
G1 X76.061 Y111.732 E636.71169
G1 X76.061 Y112.201 E636.76927
G1 X123.939 Y112.201 E642.64411
G1 X123.939 Y112.670 E642.70170
G1 X76.061 Y112.670 E648.57654
G1 X76.061 Y113.140 E648.63412
G1 X123.939 Y113.140 E654.50896
G1 X123.939 Y113.609 E654.56654
G1 X76.061 Y113.609 E660.44138
G1 X76.061 Y114.078 E660.49897
G1 X123.939 Y114.078 E666.37381
G1 X123.939 Y114.548 E666.43139
G1 X76.061 Y114.548 E672.30623
G1 X76.061 Y115.017 E672.36381
G1 X123.939 Y115.017 E678.23865
G1 X123.939 Y115.486 E678.29624
G1 X76.061 Y115.486 E684.17108
G1 X76.061 Y115.955 E684.22866
G1 X123.939 Y115.955 E690.10350
G1 X123.939 Y116.425 E690.16108
G1 X76.061 Y116.425 E696.03592
G1 X76.061 Y116.894 E696.09350
G1 X123.939 Y116.894 E701.96834
G1 X123.939 Y117.363 E702.02593
G1 X76.061 Y117.363 E707.90077
G1 X76.061 Y117.833 E707.95835
G1 X123.939 Y117.833 E713.83319
G1 X123.939 Y118.302 E713.89077
G1 X76.061 Y118.302 E719.76561
G1 X76.061 Y118.771 E719.82320
G1 X123.939 Y118.771 E725.69804
G1 X123.939 Y119.240 E725.75562
G1 X76.061 Y119.240 E731.63046
G1 X76.061 Y119.710 E731.68804
G1 X123.939 Y119.710 E737.56288
G1 X123.939 Y120.179 E737.62047
G1 X76.061 Y120.179 E743.49531
G1 X76.061 Y120.648 E743.55289
G1 X123.939 Y120.648 E749.42773
G1 X123.939 Y121.117 E749.48531
G1 X76.061 Y121.117 E755.36015
G1 X76.061 Y121.587 E755.41774
G1 X123.939 Y121.587 E761.29258
G1 X123.939 Y122.056 E761.35016
G1 X76.061 Y122.056 E767.22500
G1 X76.061 Y122.525 E767.28258
G1 X123.939 Y122.525 E773.15742
G1 X123.939 Y122.995 E773.21501
G1 X76.061 Y122.995 E779.08985
G1 X76.061 Y123.464 E779.14743
G1 X123.939 Y123.464 E785.02227
G1 X123.939 Y123.933 E785.07985
G1 X76.061 Y123.933 E790.95469
G1 X76.061 Y124.402 E791.01227
G1 X123.939 Y124.402 E796.88711
G1 X123.939 Y124.872 E796.94470
G1 X76.061 Y124.872 E802.81954
G1 X76.061 Y125.341 E802.87712
G1 X123.939 Y125.341 E808.75196
G1 X123.939 Y125.810 E808.80954
G1 X76.061 Y125.810 E814.68438
G1 X76.061 Y126.280 E814.74197
G1 X123.939 Y126.280 E820.61681
G1 X123.939 Y126.749 E820.67439
G1 X76.061 Y126.749 E826.54923
G1 X76.061 Y127.218 E826.60681
G1 X123.939 Y127.218 E832.48165
G1 X123.939 Y127.687 E832.53924
G1 X76.061 Y127.687 E838.41408
G1 X76.061 Y128.157 E838.47166
G1 X123.939 Y128.157 E844.34650
G1 X123.939 Y128.626 E844.40408
G1 X76.061 Y128.626 E850.27892
G1 X76.061 Y129.095 E850.33651
G1 X123.939 Y129.095 E856.21135
G1 X123.939 Y129.564 E856.26893
G1 X76.061 Y129.564 E862.14377
G1 X76.061 Y130.034 E862.20135
G1 X123.939 Y130.034 E868.07619
G1 X123.939 Y130.503 E868.13378
G1 X76.061 Y130.503 E874.00862
G1 X76.061 Y130.972 E874.06620
G1 X123.939 Y130.972 E879.94104
G1 X123.939 Y131.442 E879.99862
G1 X76.061 Y131.442 E885.87346
G1 X76.061 Y131.911 E885.93104
G1 X123.939 Y131.911 E891.80588
G1 X123.939 Y132.380 E891.86347
G1 X76.061 Y132.380 E897.73831
G1 X76.061 Y132.849 E897.79589
G1 X123.939 Y132.849 E903.67073
G1 X123.939 Y133.319 E903.72831
G1 X76.061 Y133.319 E909.60315
G1 X76.061 Y133.788 E909.66074
G1 X123.939 Y133.788 E915.53558
G1 X123.939 Y134.257 E915.59316
G1 X76.061 Y134.257 E921.46800
G1 X76.061 Y134.726 E921.52558
G1 X123.939 Y134.726 E927.40042
G1 X123.939 Y135.196 E927.45801
G1 X76.061 Y135.196 E933.33285
G1 X76.061 Y135.665 E933.39043
G1 X123.939 Y135.665 E939.26527
G1 X123.939 Y136.134 E939.32285
G1 X76.061 Y136.134 E945.19769
G1 X76.061 Y136.604 E945.25528
G1 X123.939 Y136.604 E951.13012
G1 X123.939 Y137.073 E951.18770
G1 X76.061 Y137.073 E957.06254
G1 X76.061 Y137.542 E957.12012
G1 X123.939 Y137.542 E962.99496
G1 X123.939 Y138.011 E963.05255
G1 X76.061 Y138.011 E968.92738
M104 S200 ; set temperature
; Layer change
G1 Z1.197 F420.000
G1 X76.123 Y62.386 F420.000
G1 F420
G1 X123.877 Y62.386 E970.33834
G1 X123.877 Y137.614 E972.56106
G1 X76.123 Y137.614 E973.97202
G1 X76.123 Y62.461 E976.19253
G1 X75.705 Y61.968 F420.000
G1 F420
G1 X124.295 Y61.968 E977.62816
G1 X124.295 Y138.032 E979.87557
G1 X75.705 Y138.032 E981.31121
G1 X75.705 Y62.043 E983.55640
G1 X75.275 Y61.538 F420.000
G1 F210
G1 X124.725 Y61.538 E985.10490
G1 X124.725 Y138.462 E987.51376
G1 X75.275 Y138.462 E989.06227
G1 X75.275 Y61.613 E991.46878
G1 X77.027 Y62.574 F420.000
G1 F4800
G1 X77.027 Y137.426 E993.68040
G1 X77.549 Y137.426 E993.69583
G1 X77.549 Y62.574 E995.90744
G1 X78.071 Y62.574 E995.92287
G1 X78.071 Y137.426 E998.13449
G1 X78.593 Y137.426 E998.14992
G1 X78.593 Y62.574 E1000.36153
G1 X79.115 Y62.574 E1000.37696
G1 X79.115 Y137.426 E1002.58858
G1 X79.637 Y137.426 E1002.60401
G1 X79.637 Y62.574 E1004.81562
G1 X80.159 Y62.574 E1004.83105
G1 X80.159 Y137.426 E1007.04267
G1 X80.681 Y137.426 E1007.05810
G1 X80.681 Y62.574 E1009.26971
G1 X81.204 Y62.574 E1009.28514
G1 X81.204 Y137.426 E1011.49676
G1 X81.726 Y137.426 E1011.51219
G1 X81.726 Y62.574 E1013.72380
G1 X82.248 Y62.574 E1013.73923
G1 X82.248 Y137.426 E1015.95085
G1 X82.770 Y137.426 E1015.96628
G1 X82.770 Y62.574 E1018.17789
G1 X83.292 Y62.574 E1018.19332
G1 X83.292 Y137.426 E1020.40494
G1 X83.814 Y137.426 E1020.42037
G1 X83.814 Y62.574 E1022.63198
G1 X84.336 Y62.574 E1022.64741
G1 X84.336 Y137.426 E1024.85903
G1 X84.858 Y137.426 E1024.87446
G1 X84.858 Y62.574 E1027.08607
G1 X85.381 Y62.574 E1027.10150
G1 X85.381 Y137.426 E1029.31312
G1 X85.903 Y137.426 E1029.32855
G1 X85.903 Y62.574 E1031.54016
G1 X86.425 Y62.574 E1031.55559
G1 X86.425 Y137.426 E1033.76721
G1 X86.947 Y137.426 E1033.78264
G1 X86.947 Y62.574 E1035.99425
G1 X87.469 Y62.574 E1036.00968
G1 X87.469 Y137.426 E1038.22130
G1 X87.991 Y137.426 E1038.23673
G1 X87.991 Y62.574 E1040.44834
G1 X88.513 Y62.574 E1040.46377
G1 X88.513 Y137.426 E1042.67539
G1 X89.035 Y137.426 E1042.69082
G1 X89.035 Y62.574 E1044.90243
G1 X89.558 Y62.574 E1044.91786
G1 X89.558 Y137.426 E1047.12948
G1 X90.080 Y137.426 E1047.14491
G1 X90.080 Y62.574 E1049.35652
G1 X90.602 Y62.574 E1049.37195
G1 X90.602 Y137.426 E1051.58357
G1 X91.124 Y137.426 E1051.59900
G1 X91.124 Y62.574 E1053.81061
G1 X91.646 Y62.574 E1053.82604
G1 X91.646 Y137.426 E1056.03766
G1 X92.168 Y137.426 E1056.05309
G1 X92.168 Y62.574 E1058.26470
G1 X92.690 Y62.574 E1058.28013
G1 X92.690 Y137.426 E1060.49175
G1 X93.212 Y137.426 E1060.50718
G1 X93.212 Y62.574 E1062.71879
G1 X93.735 Y62.574 E1062.73422
G1 X93.735 Y137.426 E1064.94584
G1 X94.257 Y137.426 E1064.96127
G1 X94.257 Y62.574 E1067.17288
G1 X94.779 Y62.574 E1067.18831
G1 X94.779 Y137.426 E1069.39993
G1 X95.301 Y137.426 E1069.41536
G1 X95.301 Y62.574 E1071.62697
G1 X95.823 Y62.574 E1071.64240
G1 X95.823 Y137.426 E1073.85402
G1 X96.345 Y137.426 E1073.86945
G1 X96.345 Y62.574 E1076.08106
G1 X96.867 Y62.574 E1076.09649
G1 X96.867 Y137.426 E1078.30811
G1 X97.389 Y137.426 E1078.32354
G1 X97.389 Y62.574 E1080.53515
G1 X97.912 Y62.574 E1080.55058
G1 X97.912 Y137.426 E1082.76220
G1 X98.434 Y137.426 E1082.77763
G1 X98.434 Y62.574 E1084.98924
G1 X98.956 Y62.574 E1085.00467
G1 X98.956 Y137.426 E1087.21629
G1 X99.478 Y137.426 E1087.23172
G1 X99.478 Y62.574 E1089.44333
G1 X100.000 Y62.574 E1089.45876
G1 X100.000 Y137.426 E1091.67038
G1 X100.522 Y137.426 E1091.68581
G1 X100.522 Y62.574 E1093.89742
G1 X101.044 Y62.574 E1093.91285
G1 X101.044 Y137.426 E1096.12447
G1 X101.566 Y137.426 E1096.13989
G1 X101.566 Y62.574 E1098.35151
G1 X102.088 Y62.574 E1098.36694
G1 X102.088 Y137.426 E1100.57856
G1 X102.611 Y137.426 E1100.59398
G1 X102.611 Y62.574 E1102.80560
G1 X103.133 Y62.574 E1102.82103
G1 X103.133 Y137.426 E1105.03265
G1 X103.655 Y137.426 E1105.04807
G1 X103.655 Y62.574 E1107.25969
G1 X104.177 Y62.574 E1107.27512
G1 X104.177 Y137.426 E1109.48674
G1 X104.699 Y137.426 E1109.50216
G1 X104.699 Y62.574 E1111.71378
G1 X105.221 Y62.574 E1111.72921
G1 X105.221 Y137.426 E1113.94083
G1 X105.743 Y137.426 E1113.95625
G1 X105.743 Y62.574 E1116.16787
G1 X106.265 Y62.574 E1116.18330
G1 X106.265 Y137.426 E1118.39492
G1 X106.788 Y137.426 E1118.41034
G1 X106.788 Y62.574 E1120.62196
G1 X107.310 Y62.574 E1120.63739
G1 X107.310 Y137.426 E1122.84901
G1 X107.832 Y137.426 E1122.86443
G1 X107.832 Y62.574 E1125.07605
G1 X108.354 Y62.574 E1125.09148
G1 X108.354 Y137.426 E1127.30309
G1 X108.876 Y137.426 E1127.31852
G1 X108.876 Y62.574 E1129.53014
G1 X109.398 Y62.574 E1129.54557
G1 X109.398 Y137.426 E1131.75718
G1 X109.920 Y137.426 E1131.77261
G1 X109.920 Y62.574 E1133.98423
G1 X110.442 Y62.574 E1133.99966
G1 X110.442 Y137.426 E1136.21127
G1 X110.965 Y137.426 E1136.22670
G1 X110.965 Y62.574 E1138.43832
G1 X111.487 Y62.574 E1138.45375
G1 X111.487 Y137.426 E1140.66536
G1 X112.009 Y137.426 E1140.68079
G1 X112.009 Y62.574 E1142.89241
G1 X112.531 Y62.574 E1142.90783
G1 X112.531 Y137.426 E1145.11945
G1 X113.053 Y137.426 E1145.13488
G1 X113.053 Y62.574 E1147.34650
